X:223
T:Reel St Antoine
M:4/4
L:1/8
K:A
a3a aece | a3a aece | agfe dcBA | GABc defg |
a3a aece | a3a aece | agfe dcBA | GABG A4 ::
c3c- cAce | dcBA GABc | d3d- dcdf | edcB AGAB |
c3c- cAce | dcBA GABc | defg afed | cABG A4 :|
